24x24/apps/vbam.svg

<svg height="24" width="24" xmlns="http://www.w3.org/2000/svg"><path d="m8.995 5.5c-1.07 0-2.026.336-2.684 1h-2.011c-1.828 0-3.3 1.533-3.3 3.334v5.333c0 1.8 1.472 3.333 3.3 3.333h2.01c.659.664 1.614 1 2.685 1h6.01c1.07 0 2.026-.336 2.684-1h2.011c1.828 0 3.3-1.533 3.3-3.333v-5.333c0-1.8-1.472-3.334-3.3-3.334h-2.01c-.659-.664-1.614-1-2.685-1z" opacity=".2"/><path d="m8.995 5c-1.07 0-2.026.336-2.684 1h-2.011c-1.828 0-3.3 1.533-3.3 3.334v5.333c0 1.8 1.472 3.333 3.3 3.333h2.01c.659.664 1.614 1 2.685 1h6.01c1.07 0 2.026-.336 2.684-1h2.011c1.828 0 3.3-1.533 3.3-3.333v-5.333c0-1.8-1.472-3.334-3.3-3.334h-2.01c-.659-.664-1.614-1-2.685-1z" fill="#7f4fc8"/><circle cx="21" cy="11.5" opacity=".2" r="1"/><circle cx="21" cy="11" fill="#f4f4f7" r="1"/><circle cx="12.5" cy="-18" opacity=".2" r="1" transform="rotate(90)"/><circle cx="12" cy="-18" fill="#f4f4f7" r="1" transform="rotate(90)"/><path d="m8.995 5c-1.07 0-2.027.336-2.684 1h-2.011c-1.828 0-3.3 1.533-3.3 3.333v.5c0-1.8 1.472-3.333 3.3-3.333h2.01c.658-.664 1.614-1 2.685-1h6.01c1.07 0 2.027.336 2.684 1h2.011c1.828 0 3.3 1.533 3.3 3.333v-.5c0-1.8-1.472-3.333-3.3-3.333h-2.01c-.658-.664-1.614-1-2.685-1z" fill="#f4f4f7" opacity=".1"/><path d="m8 8h8v8h-8z" fill="#7b92ed"/><circle cx="8" cy="-20.5" opacity=".2" r=".5" transform="rotate(90)"/><circle cx="7.5" cy="-20.5" fill="#52ff41" r=".5" transform="rotate(90)"/><path d="m3 10.5v1h-1v2h1v1h2v-1h1v-2h-1v-1z" opacity=".2"/><path d="m3 10v1h-1v2h1v1h2v-1h1v-2h-1v-1z" fill="#f4f4f7"/></svg>

<svg xmlns="http://www.w3.org/2000/svg" width="24" height="24" version="1"><path style="opacity:.2" d="M8.995 5.5c-1.07 0-2.026.336-2.684 1H4.3C2.472 6.5 1 8.033 1 9.834v5.333c0 1.8 1.472 3.333 3.3 3.333h2.01c.659.664 1.614 1 2.685 1h6.01c1.07 0 2.026-.336 2.684-1H19.7c1.828 0 3.3-1.533 3.3-3.333V9.834c0-1.8-1.472-3.334-3.3-3.334h-2.01c-.659-.664-1.614-1-2.685-1z"/><path style="fill:#7f4fc8" d="M8.995 5c-1.07 0-2.026.336-2.684 1H4.3C2.472 6 1 7.533 1 9.334v5.333C1 16.467 2.472 18 4.3 18h2.01c.659.664 1.614 1 2.685 1h6.01c1.07 0 2.026-.336 2.684-1H19.7c1.828 0 3.3-1.533 3.3-3.333V9.334C23 7.534 21.528 6 19.7 6h-2.01c-.659-.664-1.614-1-2.685-1z"/><circle style="opacity:.2" cx="21" cy="11.5" r="1"/><circle style="fill:#f4f4f7" cx="21" cy="11" r="1"/><circle style="opacity:.2" cx="12.5" cy="-18" r="1" transform="rotate(90)"/><circle style="fill:#f4f4f7" cx="12" cy="-18" r="1" transform="rotate(90)"/><path style="opacity:.1;fill:#f4f4f7" d="M8.995 5c-1.07 0-2.027.336-2.684 1H4.3C2.472 6 1 7.533 1 9.333v.5C1 8.033 2.472 6.5 4.3 6.5h2.01c.658-.664 1.614-1 2.685-1h6.01c1.07 0 2.027.336 2.684 1H19.7c1.828 0 3.3 1.533 3.3 3.333v-.5C23 7.533 21.528 6 19.7 6h-2.01c-.658-.664-1.614-1-2.685-1h-6.01z"/><path style="fill:#7b92ed" d="M8 8h8v8H8z"/><circle style="opacity:.2" cx="8" cy="-20.5" r=".5" transform="rotate(90)"/><circle style="fill:#52ff41" cx="7.5" cy="-20.5" r=".5" transform="rotate(90)"/><path style="opacity:.2" d="M3 10.5v1H2v2h1v1h2v-1h1v-2H5v-1H3z"/><path style="fill:#f4f4f7" d="M3 10v1H2v2h1v1h2v-1h1v-2H5v-1H3z"/></svg>
